X:190
T: Die beiden Waisenkinder
N: Q0118C
O: Mitteleuropa, Deutschland (BRD) , Hessen
R: Ballade, Waise, boese Stiefmutter, Klage am Grab, Geist
M: 3/4
L: 1/8
K: G
D2 | G3GG2 | G4A2 | B2B2z2 | z4
d2 | d3dd2 | c4A2 | B4z2 | z4
d2 | B3BB2 | B2c2d2 | e6 | e2d2
c2 | d3dd2 | d4c2 | B4z2 | z4
d2 | B3BB2 | B2c2d2 | e6 | e2d2
c2 | d3dd2 | d4c2 | B4

@@@ Tune index: 1483
